assets/img/icons/socials-wa.svg

<svg width="32" height="32" viewBox="0 0 32 32" fill="none" xmlns="http://www.w3.org/2000/svg">
<g clip-path="url(#clip0_364_1395)">
<path d="M16 0C7.164 0 0 7.164 0 16C0 24.836 7.164 32 16 32C24.836 32 32 24.836 32 16C32 7.164 24.836 0 16 0Z" fill="white"/>
<path d="M16.207 6.99512C18.5584 6.99513 20.7672 7.91127 22.4268 9.57324C24.0864 11.2354 25.0013 13.4446 25 15.7949C24.9986 20.6433 21.0529 24.5869 16.207 24.5869H16.2031C14.7318 24.5869 13.2854 24.2171 12.002 23.5166L7.33984 24.7393L8.58789 20.1836C7.81825 18.8511 7.41406 17.3377 7.41406 15.7871C7.41661 10.9387 11.3598 6.99512 16.207 6.99512ZM12.9688 11.7383C12.923 11.7468 12.8735 11.7608 12.8223 11.7812C12.7192 11.8224 12.6088 11.8912 12.5078 12.001C12.3059 12.2204 11.7384 12.7518 11.7383 13.833C11.7383 14.9148 12.5254 15.9598 12.6357 16.1064C12.7391 16.2457 14.0112 18.2036 15.9844 19.2314C16.1161 19.3 16.2509 19.3643 16.3887 19.4238C16.9125 19.6506 17.321 19.7852 17.6406 19.8867C18.1669 20.0534 18.6459 20.029 19.0244 19.9727C19.4468 19.91 20.3248 19.4426 20.5078 18.9287L20.5117 18.9277C20.6945 18.4157 20.6946 17.9761 20.6396 17.8838C20.6327 17.8723 20.624 17.8611 20.6143 17.8506C20.6045 17.8402 20.5935 17.8301 20.5811 17.8203C20.5062 17.7614 20.3822 17.7106 20.2178 17.6279C19.9967 17.5174 18.9178 16.9873 18.7168 16.9131C18.5151 16.8404 18.3683 16.8031 18.2217 17.0234C18.075 17.2428 17.6545 17.7381 17.5254 17.8848C17.5094 17.9029 17.4937 17.9194 17.4775 17.9336C17.4612 17.9481 17.4446 17.9603 17.4277 17.9707C17.327 18.0327 17.2143 18.0221 17.0498 17.9395C16.9395 17.8843 16.7069 17.7992 16.3975 17.6338C16.3203 17.5925 16.2385 17.5461 16.1523 17.4941C15.8934 17.338 15.5971 17.1302 15.2822 16.8496C14.6292 16.2667 14.1874 15.5478 14.0596 15.3271C13.9322 15.1069 14.046 14.9879 14.1562 14.8789C14.2553 14.7811 14.376 14.622 14.4863 14.4941C14.5953 14.3664 14.6312 14.2745 14.7051 14.1279C14.7233 14.0912 14.7353 14.0559 14.7412 14.0215C14.7529 13.9528 14.7428 13.8887 14.7227 13.8291C14.7126 13.7994 14.7003 13.7707 14.6865 13.7432C14.6313 13.6325 14.1918 12.5514 14.0088 12.1113C13.8309 11.6828 13.6488 11.7419 13.5146 11.7344C13.3869 11.7281 13.239 11.7266 13.0938 11.7266C13.0574 11.7266 13.0147 11.7297 12.9688 11.7383Z" fill="#AD2D2D"/>
</g>
<defs>
<clipPath id="clip0_364_1395">
<rect width="32" height="32" fill="white"/>
</clipPath>
</defs>
</svg>

<svg width="32" height="32" fill="none" xmlns="http://www.w3.org/2000/svg"><g clip-path="url(#a)"><path d="M16 0C7.164 0 0 7.164 0 16s7.164 16 16 16 16-7.164 16-16S24.836 0 16 0Z" fill="#fff"/><path d="M16.207 6.995c2.351 0 4.56.916 6.22 2.578A8.742 8.742 0 0 1 25 15.795c-.001 4.848-3.947 8.792-8.793 8.792h-.004a8.775 8.775 0 0 1-4.201-1.07L7.34 24.739l1.248-4.555a8.78 8.78 0 0 1-1.174-4.397c.003-4.848 3.946-8.792 8.793-8.792Zm-3.238 4.743a.86.86 0 0 0-.461.263c-.202.22-.77.75-.77 1.832s.787 2.127.898 2.273c.103.14 1.375 2.098 3.348 3.125.132.069.267.133.405.193.524.227.932.361 1.252.463a3.02 3.02 0 0 0 1.383.086c.423-.063 1.3-.53 1.484-1.044l.004-.001c.183-.512.183-.952.128-1.044a.205.205 0 0 0-.026-.033.307.307 0 0 0-.033-.03c-.075-.06-.199-.11-.363-.193-.221-.11-1.3-.64-1.501-.715-.202-.073-.349-.11-.495.11-.147.22-.568.715-.697.862a.542.542 0 0 1-.097.086c-.101.062-.214.051-.378-.032-.11-.055-.343-.14-.652-.305a5.831 5.831 0 0 1-1.115-.784 6.56 6.56 0 0 1-1.223-1.523c-.128-.22-.014-.34.096-.448.1-.098.22-.257.33-.385.11-.128.145-.22.22-.366a.387.387 0 0 0 .035-.107.389.389 0 0 0-.018-.192.68.68 0 0 0-.037-.086c-.055-.11-.494-1.192-.677-1.632-.178-.428-.36-.37-.494-.377a8.907 8.907 0 0 0-.421-.007.683.683 0 0 0-.125.011Z" fill="#AD2D2D"/></g><defs><clipPath id="a"><path fill="#fff" d="M0 0h32v32H0z"/></clipPath></defs></svg>
